packages/gestalt/src/icons/heart-broken.svg

<svg width="24" height="24" xmlns="http://www.w3.org/2000/svg"><path fill="#aeaeae" d="M11.98 22.25L1.82 11.95C-.28 9.83-.65 6.4 1.18 4.03a5.763 5.763 0 0 1 8.7-.56l2.1 2.14 1.95-1.98c2.1-2.13 5.48-2.5 7.82-.65 2.8 2.23 2.99 6.35.55 8.82L11.98 22.25zM15.3 9.54c.4-.4.4-1.06 0-1.46-.4-.4-1.05-.4-1.45 0L12 9.94l-1.85-1.86c-.4-.4-1.05-.4-1.45 0-.4.4-.4 1.06 0 1.46l1.85 1.86-1.85 1.86c-.4.4-.4 1.05 0 1.45.4.4 1.05.41 1.45 0L12 12.85l1.85 1.86c.4.41 1.05.41 1.45 0 .4-.4.4-1.05 0-1.45l-1.85-1.86 1.85-1.86z"/></svg>

<svg width="24" height="24" viewBox="0 0 24 24" xmlns="http://www.w3.org/2000/svg"><path fill="#aeaeae" d="M11.98,22.25 L1.82,11.95 C-0.28,9.83 -0.65,6.40 1.18,4.03 C3.37,1.19 7.44,1.00 9.88,3.47 L11.98,5.61 L13.93,3.63 C16.03,1.50 19.41,1.13 21.75,2.98 C24.55,5.21 24.74,9.33 22.30,11.80 L11.98,22.25 Z M15.30,9.54 C15.70,9.14 15.70,8.48 15.30,8.08 C14.90,7.68 14.25,7.68 13.85,8.08 L12.00,9.94 L10.15,8.08 C9.75,7.68 9.10,7.68 8.70,8.08 C8.30,8.48 8.30,9.14 8.70,9.54 L10.55,11.40 L8.70,13.26 C8.30,13.66 8.30,14.31 8.70,14.71 C9.10,15.11 9.75,15.12 10.15,14.71 L12.00,12.85 L13.85,14.71 C14.25,15.12 14.90,15.12 15.30,14.71 C15.70,14.31 15.70,13.66 15.30,13.26 L13.45,11.40 L15.30,9.54 Z"/></svg>
